X: 42830
T: Widow Brady, The
R: jig
M: 6/8
K: Dmajor
d2B|:AFD (3DDDD|AFA B2d|AFD DFA|fed B/c/dB|
AFD DED|AFA B2A|def gfe|1 fdB BdB:|2 fdc d2f/g/||
afd fed|ecA A2e|fed dcd|ecA A2f/g/|
aba gag|fed cBA|Bcd efg|1 fdc d2f/g/:|2 fdc d3||

